!!!OTL: Die Mordeltern
!!!OTL-incipit:Es hatt' ein Gastwirt einen Sohn,
!!!ARE: Europa, Mitteleuropa, Deutschland (BRD), Nordbayern, Oberfranken
!!!YOR: 4, S. 312
!!    ????
!!!SCT: Q0085k
!!!TXL: @@DE
!!!YEM: Copyright 1995, estate of Helmut Schaffrath.
**kern	**text
*ICvox	*
*M6/8	*
*k[f#]	*
*G:	*
!LO:TX:a:t=324 Oberfranken	!
{8d	Es
=1	=1
4g	hatt'
8d	ein
4g	Gaſt-
8a	-wirt
=2	=2
4b	einen
16bL	.
16aJ	.
4g}	Sohn,
{16gL	der
16aJ	.
=3	=3
4b	woll-
8a	-te
4b	etwas
16ccL	.
16eeJ	.
=4	=4
4dd	lernen
16ddL	.
16ccJ	.
4b}	ſchon;
{8b	ein
=5	=5
4dd	Schloſ-
8b	-ſer
4dd	wollt'
8ee	er
=6	=6
(4dd	wer-
8cc)	.
4b}	-den,
{16bL	ein
16gJ	.
=7	=7
4a	Schloſ-
8b	.
8ddL	-ſer
8ccJ	.
8b	wollt'
=8	=8
8aL	er
8b	wer-
8aJ	.
8g;	-den.
8r}	.
==	==
!!!AGN: Ballade, Habgier, Mord, Reue, Selbstmord
!!!ONB: ESAC (Essen Associative Code) Database: BALLADE
!!!AMT: compound duple
!!!AIN: vox
!!!EED: Helmut Schaffrath
!!!EEV: 1.0
!!!source: Deutsche Volkslieder mit ihren Melodien. Herausgegeben vom Deutschen Volksliedarchiv. Vierter Band. Berlin 1959.
!!!page: 312
!!!ENC: Anna Maria Matuszewska
!!!EEV: 2025/02/26
*-	*-
